X: 15
T: Au povre par necessit\'e
N: Derived from Bus3007-Au_povre_par_necessite.krn
C: Antoine Busnoys
%%abc-version 2.0
%%abcx-abcm2ps-target-version 5.9.1 (29 Sep 2008)
%%abc-creator hum2abc beta
%%abcx-conversion-date 2019/02/16 20:26:06
%%abc-edited-by Jesse Rodin
%%abc-edited-by Chris Gage 02-12-2015
%%abcx-initial-encoding-date 2015/02/20/
%%humdrum-veritas 3668533959
%%humdrum-veritas-data 3243384170
%%linebreak <none>
%%barnumbers 0
L: 1/4
M: 2/1
Q: 1/2=120
V: 1 clef=treble
V: 2 clef=treble-8
V: 3 clef=bass
K: Bb
[V:1] C8 | 
[V:2] c8- | 
[V:3] C,6D,2 | 
[V:1] C4C4 | 
[V:2] c8- | 
[V:3] E,4F,4 | 
[V:1] E6F2 | 
[V:2] c8- | 
[V:3] C,8 | 
[V:1] G4A4 | 
[V:2] c8 | 
[V:3] z4F,4 | 
[V:1] G4c4 | 
[V:2] c8 | 
[V:3] E,4C,3D, | 
[V:1] B4e4 | 
[V:2] G4c4 | 
[V:3] E,4C,4 | 
[V:1] d2d4cB | 
[V:2] B6c2 | 
[V:3] G,8 | 
[V:1] A4G4- | 
[V:2] d4e4 | 
[V:3] F,4E,4- | 
[V:1] G2F2E4 | 
[V:2] c8 | 
[V:3] E,4C,4 | 
[V:1] D4G4- | 
[V:2] B8 | 
[V:3] G,8 | 
[V:1] G2^F2F2=E2 | 
[V:2] A8 | 
[V:3] D,8 | 
[V:1] G4A4 | 
[V:2] G4F4 | 
[V:3] E,4F,4 | 
[V:1] G4F4 | 
[V:2] B4A4 | 
[V:3] G,4D,4 | 
[V:1] G4E4 | 
[V:2] G4c4- | 
[V:3] E,4C,4 | 
[V:1] D8 | 
[V:2] c4B4 | 
[V:3] G,8 | 
[V:1] C8 | 
[V:2] e8- | 
[V:3] z4C,4- | 
[V:1] z4G4 | 
[V:2] e8 | 
[V:3] C,2D,2E,4 | 
[V:1] A4B4 | 
[V:2] d8 | 
[V:3] F,4G,4 | 
[V:1] c6BA | 
[V:2] c8 | 
[V:3] C,4A,4 | 
[V:1] B6cd | 
[V:2] g8- | 
[V:3] G,8 | 
[V:1] e4d4- | 
[V:2] g4f4 | 
[V:3] C4D4 | 
[V:1] d2c2c4- | 
[V:2] g4e4 | 
[V:3] G,4C4 | 
[V:1] c4=B4 | 
[V:2] d8 | 
[V:3] G,8 | 
[V:1] c8 | 
[V:2] c4e4- | 
[V:3] C,8 | 
[V:1] z4c4 | 
[V:2] e2d2c4 | 
[V:3] C4A,4 | 
[V:1] d8 | 
[V:2] B4G4 | 
[V:3] G,4B,3A, | 
[V:1] c4A4 | 
[V:2] A8 | 
[V:3] F,8 | 
[V:1] B4G4- | 
[V:2] G6A2 | 
[V:3] z4E,4- | 
[V:1] G4F4 | 
[V:2] B2c2d4 | 
[V:3] E,4D,4 | 
[V:1] G4E4 | 
[V:2] e4c4- | 
[V:3] C,4E,4 | 
[V:1] D8 | 
[V:2] c4B4 | 
[V:3] F,4G,4 | 
[V:1] z4C4- | 
[V:2] e8- | 
[V:3] C,8 | 
[V:1] C2D2E2F2 | 
[V:2] e8 | 
[V:3] z4C4- | 
[V:1] G4A4 | 
[V:2] e4f4 | 
[V:3] C4F,4 | 
[V:1] G4c4 | 
[V:2] e4c4 | 
[V:3] C4A,4 | 
[V:1] B4G4 | 
[V:2] d4e4 | 
[V:3] G,4E,4 | 
[V:1] A2G2F2E2 | 
[V:2] c8 | 
[V:3] F,8 | 
[V:1] D8 | 
[V:2] B8- | 
[V:3] G,8- | 
[V:1] z8 | 
[V:2] B8 | 
[V:3] G,8 | 
[V:1] E8 | 
[V:2] z4c4 | 
[V:3] C,8 | 
[V:1] D4C4 | 
[V:2] G4A4 | 
[V:3] z4F,4 | 
[V:1] B,4C4 | 
[V:2] G4c4- | 
[V:3] G,4A,4 | 
[V:1] D8 | 
[V:2] c4=B4 | 
[V:3] G,8 | 
[V:1] C8 | 
[V:2] c8- | 
[V:3] A,4F,4- | 
[V:1] z4G4- | 
[V:2] c8 | 
[V:3] F,2E,2C,4 | 
[V:1] G2F2G4 | 
[V:2] e8 | 
[V:3] C8 | 
[V:1] A4B4 | 
[V:2] f4d4 | 
[V:3] F,4G,4 | 
[V:1] c4d4 | 
[V:2] e4f4 | 
[V:3] C4B,4 | 
[V:1] B4e4- | 
[V:2] g8 | 
[V:3] G,4C4 | 
[V:1] e2dcd4- | 
[V:2] f8 | 
[V:3] D4B,4 | 
[V:1] d2cBc4- | 
[V:2] e8 | 
[V:3] C8 | 
[V:1] c2=BA=B4 | 
[V:2] d8 | 
[V:3] G,8 | 
[V:1] c6B2 | 
[V:2] c8- | 
[V:3] C,4F,4- | 
[V:1] A2G2G4- | 
[V:2] c4B4 | 
[V:3] F,4G,4 | 
[V:1] G4^F4 | 
[V:2] A8 | 
[V:3] D,8 | 
[V:1] G8 | 
[V:2] G4c4 | 
[V:3] E,4C,4 | 
[V:1] z4G4 | 
[V:2] d4e4 | 
[V:3] G,8 | 
[V:1] A4B4 | 
[V:2] f4d4 | 
[V:3] F,4G,4 | 
[V:1] c3BG4 | 
[V:2] c4e3f | 
[V:3] A,3B,C4 | 
[V:1] z2C2D2E2 | 
[V:2] g4z2c2 | 
[V:3] C4B,2A,2 | 
[V:1] F2D2E2F2 | 
[V:2] A2B2c2A2 | 
[V:3] F,2G,2C,2D,2 | 
[V:1] G2E2D4 | 
[V:2] G2c4B2 | 
[V:3] E,2C,2G,4 | 
[V:1] C4z2G2 | 
[V:2] e8 | 
[V:3] C,4C4 | 
[V:1] A2B2c2A2 | 
[V:2] d4c4 | 
[V:3] z2G,2A,4 | 
[V:1] B2cde2d2- | 
[V:2] g6f2 | 
[V:3] G,4C2D2 | 
[V:1] dcc4=B2 | 
[V:2] g2e2d4 | 
[V:3] G,2C2G,4 | 
[V:1] c8 |]  
[V:2] c8 |]  
[V:3] C,8 |]  



